X: 5625
T: Butterflies In Winter
R: jig
M: 6/8
K: Bminor
|:B3F3|f=f^f B3|dcd Bcd|cAc edc|
B3F3|f=f^f B2c|dcd Bcd|1 cBA BcA:|2 cBA B2c||
dcd ~B3|cBc AFE|FBB FBB|cBA B2c|
dcd ~B3|cBc ABc|dBB f=f^f|edc B2c|
dcd ~B3|cBc AFE|FBB FBB|cBA B2c|
dcd ~B3|cBc ABc|BFF f=f^f|edc B3||

